icons/computer-fill.svg

<svg xmlns="http://www.w3.org/2000/svg" width="24" height="24" fill="none"><g clip-path="url(#a)"><g><path fill="#121212" d="M13 18V20H17V22H7.00001V20H11V18H2.99201C2.8607 17.9992 2.73083 17.9725 2.60985 17.9215C2.48887 17.8704 2.37916 17.7959 2.287 17.7024C2.19485 17.6088 2.12206 17.498 2.07281 17.3763C2.02356 17.2546 1.99882 17.1243 2.00001 16.993V4.007C2.00001 3.451 2.45501 3 2.99201 3H21.008C21.556 3 22 3.449 22 4.007V16.993C22 17.549 21.545 18 21.008 18H13Z"/></g></g><defs><clipPath id="a"><rect width="24" height="24" fill="white"/></clipPath></defs></svg>

<svg width="24" height="24" fill="none" xmlns="http://www.w3.org/2000/svg"><g clip-path="url(#a)"><path d="M13 18v2h4v2H7v-2h4v-2H2.992A1 1 0 0 1 2 16.993V4.007C2 3.451 2.455 3 2.992 3h18.016c.548 0 .992.449.992 1.007v12.986c0 .556-.455 1.007-.992 1.007H13Z" /></g><defs><clipPath id="a"><path fill="#fff" d="M0 0h24v24H0z"/></clipPath></defs></svg>
